public/logos/QQ.svg

<?xml version="1.0" encoding="UTF-8"?>
<svg xmlns="http://www.w3.org/2000/svg" xmlns:xlink="http://www.w3.org/1999/xlink" width="176pt" height="31.53pt" viewBox="0 0 176 31.53" version="1.1">
<g id="surface1">
<path style=" stroke:none;fill-rule:nonzero;fill:rgb(97.799683%,69.169617%,8.493042%);fill-opacity:1;" d="M 71.574219 1.429688 L 69.054688 1.441406 L 69.324219 0 L 78.160156 0 L 67.570312 7.585938 L 68.488281 3.699219 L 71.574219 1.429688 "/>
<path style=" stroke:none;fill-rule:nonzero;fill:rgb(12.413025%,20.021057%,37.335205%);fill-opacity:1;" d="M 25.449219 7.039062 L 26.59375 15.433594 L 19.734375 15.433594 Z M 21.539062 0.00390625 L 0 30.949219 L 10.023438 30.949219 L 16.484375 21.71875 L 26.769531 21.851562 L 27.777344 30.949219 L 37.800781 30.949219 L 33.492188 3.828125 L 36.789062 0.00390625 Z M 38.082031 30.960938 L 45.785156 0 L 54.265625 0 L 46.703125 30.960938 Z M 49.867188 31.015625 L 57.570312 0.046875 L 66.050781 0.046875 L 58.484375 31.011719 Z M 61.816406 31.015625 L 67.574219 7.796875 L 76.195312 7.867188 L 70.4375 31.011719 Z M 81.484375 8.246094 C 85.214844 7.394531 88.941406 6.78125 92.402344 6.78125 C 99.503906 6.78125 101.308594 9.289062 100.472656 13.214844 L 95.9375 30.960938 L 87.308594 30.960938 C 88.414062 27.460938 89.300781 23.90625 90.222656 20.40625 C 88.300781 21.636719 83.089844 21.828125 82.503906 24.617188 C 82.1875 26.085938 83.359375 26.511719 84.570312 26.511719 C 85.378906 26.511719 86.21875 26.371094 87.039062 26.085938 L 84.464844 31.246094 C 83.210938 31.433594 82.019531 31.527344 80.808594 31.527344 C 72.585938 31.527344 73.820312 25.28125 73.933594 24.757812 C 76.050781 14.777344 90.726562 17.851562 91.609375 13.6875 C 91.941406 12.125 90.4375 11.792969 89.226562 11.792969 C 86.082031 11.792969 82.519531 12.882812 79.359375 14.019531 L 81.484375 8.246094 M 113.597656 10.421875 L 113.667969 10.515625 C 116.371094 7.722656 119.402344 6.78125 122.863281 6.78125 C 127.269531 6.78125 130.714844 8.53125 129.488281 14.300781 L 125.320312 30.957031 L 116.46875 30.957031 C 117.609375 26.839844 118.894531 22.726562 119.765625 18.609375 C 120.261719 16.289062 120.035156 14.160156 117.429688 14.160156 C 115.140625 14.160156 113.257812 15.816406 112.15625 18.039062 C 110.859375 20.550781 108.289062 30.957031 108.289062 30.957031 L 99.347656 30.957031 L 105.714844 7.347656 L 114.476562 7.347656 L 113.597656 10.421875 M 151.285156 14.683594 C 149.585938 14.019531 147.753906 13.546875 145.820312 13.546875 C 142.355469 13.546875 139.703125 15.679688 138.921875 19.367188 C 138.164062 22.917969 139.574219 24.761719 142.945312 24.761719 C 144.828125 24.761719 146.859375 24.289062 148.757812 23.625 L 146.183594 30.675781 C 143.855469 31.246094 141.550781 31.53125 139.300781 31.53125 C 131.980469 31.53125 128.683594 27.363281 130.34375 19.554688 C 130.871094 17.046875 133.640625 6.78125 144.96875 6.78125 C 147.890625 6.78125 150.210938 7.066406 152.367188 7.679688 L 151.285156 14.683594 M 167.574219 16.246094 C 168.15625 13.5 167.378906 12.078125 165.222656 12.078125 C 162.796875 12.078125 161 14.207031 160.339844 16.246094 Z M 159.152344 20.550781 C 158.371094 24.242188 161.007812 25.566406 163.976562 25.566406 C 166.625 25.566406 169.496094 24.761719 172.171875 24.003906 L 169.683594 30.628906 C 167 31.199219 164.285156 31.53125 161.675781 31.53125 C 154.527344 31.53125 148.765625 29.253906 150.746094 19.933594 C 151.28125 17.425781 154.484375 6.78125 166.4375 6.78125 C 173.8125 6.78125 177.082031 10.421875 175.683594 17 C 175.429688 18.183594 175.089844 19.367188 174.613281 20.550781 L 159.152344 20.550781 "/>
</g>
</svg>

<svg xmlns="http://www.w3.org/2000/svg" width="176pt" height="42.04" viewBox="0 0 176 31.53"><path d="m71.574 1.43-2.52.011.27-1.441h8.836L67.57 7.586l.918-3.887z" style="stroke:none;fill-rule:nonzero;fill:#f9b016;fill-opacity:1"/><path d="m25.45 7.04 1.144 8.394h-6.86ZM21.54.003 0 30.949h10.023l6.461-9.23 10.286.133 1.007 9.097h10.024L33.492 3.83 36.79.003ZM38.081 30.96 45.785 0h8.48l-7.562 30.96Zm11.785.055L57.57.046h8.48l-7.566 30.966Zm11.95 0 5.757-23.22 8.621.071-5.757 23.145Zm19.667-22.77c3.73-.851 7.457-1.465 10.918-1.465 7.102 0 8.907 2.508 8.07 6.434L95.939 30.96h-8.63c1.106-3.5 1.993-7.055 2.915-10.555-1.922 1.23-7.133 1.422-7.72 4.211-.316 1.469.856 1.895 2.067 1.895.809 0 1.649-.14 2.47-.426l-2.575 5.16a24.4 24.4 0 0 1-3.656.281c-8.223 0-6.989-6.246-6.875-6.77 2.117-9.98 16.793-6.905 17.675-11.07.332-1.562-1.171-1.894-2.382-1.894-3.145 0-6.707 1.09-9.868 2.227zm32.114 2.176.07.094c2.703-2.793 5.734-3.735 9.195-3.735 4.407 0 7.852 1.75 6.625 7.52l-4.168 16.656h-8.851c1.14-4.117 2.426-8.23 3.297-12.348.496-2.32.27-4.449-2.336-4.449-2.29 0-4.172 1.656-5.274 3.88-1.297 2.51-3.867 12.917-3.867 12.917h-8.941l6.367-23.61h8.762zm37.688 4.262c-1.7-.664-3.531-1.137-5.465-1.137-3.465 0-6.117 2.133-6.898 5.82-.758 3.551.652 5.395 4.023 5.395 1.883 0 3.914-.473 5.813-1.137l-2.574 7.05a29 29 0 0 1-6.883.856c-7.32 0-10.617-4.168-8.957-11.976.527-2.508 3.297-12.774 14.625-12.774 2.922 0 5.242.285 7.398.899zm16.29 1.562c.581-2.746-.196-4.168-2.352-4.168-2.426 0-4.223 2.129-4.883 4.168Zm-8.423 4.305c-.78 3.691 1.856 5.015 4.825 5.015 2.648 0 5.52-.804 8.195-1.562l-2.488 6.625c-2.684.57-5.399.902-8.008.902-7.149 0-12.91-2.277-10.93-11.597.535-2.508 3.738-13.153 15.691-13.153 7.375 0 10.645 3.64 9.247 10.219a21.5 21.5 0 0 1-1.07 3.55z" style="stroke:none;fill-rule:nonzero;fill:#20335f;fill-opacity:1"/></svg>
